la/instagram.svg

<svg xmlns="http://www.w3.org/2000/svg" viewBox="0 0 32 32" height="1em" width="1em">
  <path d="M 11.46875 5 C 7.917969 5 5 7.914063 5 11.46875 L 5 20.53125 C 5 24.082031 7.914063 27 11.46875 27 L 20.53125 27 C 24.082031 27 27 24.085938 27 20.53125 L 27 11.46875 C 27 7.917969 24.085938 5 20.53125 5 Z M 11.46875 7 L 20.53125 7 C 23.003906 7 25 8.996094 25 11.46875 L 25 20.53125 C 25 23.003906 23.003906 25 20.53125 25 L 11.46875 25 C 8.996094 25 7 23.003906 7 20.53125 L 7 11.46875 C 7 8.996094 8.996094 7 11.46875 7 Z M 21.90625 9.1875 C 21.402344 9.1875 21 9.589844 21 10.09375 C 21 10.597656 21.402344 11 21.90625 11 C 22.410156 11 22.8125 10.597656 22.8125 10.09375 C 22.8125 9.589844 22.410156 9.1875 21.90625 9.1875 Z M 16 10 C 12.699219 10 10 12.699219 10 16 C 10 19.300781 12.699219 22 16 22 C 19.300781 22 22 19.300781 22 16 C 22 12.699219 19.300781 10 16 10 Z M 16 12 C 18.222656 12 20 13.777344 20 16 C 20 18.222656 18.222656 20 16 20 C 13.777344 20 12 18.222656 12 16 C 12 13.777344 13.777344 12 16 12 Z"/>
</svg>

<svg xmlns="http://www.w3.org/2000/svg" viewBox="0 0 32 32" height="1em" width="1em">
  <path d="M11.469 5C7.918 5 5 7.914 5 11.469v9.062C5 24.082 7.914 27 11.469 27h9.062C24.082 27 27 24.086 27 20.531V11.47C27 7.918 24.086 5 20.531 5Zm0 2h9.062A4.463 4.463 0 0 1 25 11.469v9.062A4.463 4.463 0 0 1 20.531 25H11.47A4.463 4.463 0 0 1 7 20.531V11.47A4.463 4.463 0 0 1 11.469 7Zm10.437 2.188a.902.902 0 0 0-.906.906c0 .504.402.906.906.906a.902.902 0 0 0 .907-.906.902.902 0 0 0-.907-.906ZM16 10c-3.3 0-6 2.7-6 6s2.7 6 6 6 6-2.7 6-6-2.7-6-6-6Zm0 2c2.223 0 4 1.777 4 4s-1.777 4-4 4-4-1.777-4-4 1.777-4 4-4Z"/>
</svg>
